X:1
T:Title
%%score { ( 1 2 ) | ( 3 4 ) }
L:1/8
Q:1/4=100
M:4/4
K:Bb
V:1 treble nm="Grand Piano"
V:2 treble 
V:3 treble 
V:4 treble 
V:1
 d>_d =d>_d =d>B G>B | F6 z2 | F6 z2 |[M:3/4] F6 |[M:1/4] F2 |[M:4/4] d>_d =d>_d =d>B G>B | F6 z2 | %7
w: Grant~Colfax~Tullar * * * * * * *|||||||
 [FA]2 z2 z4 |[M:7/8] c-c-c- c- c3 |[M:1/4] z2 | %10
w: |||
[M:4/4] [FAe]>[Ae] [FAe]>[Ae] [FAe]>[Ae] [FAe]>[Ae] | %11
w: |
 [FBd]>[Bd] [FBd]>[Bd] [FBd]>[Bd] [FBd]>[FBd] | [GBe]>[Be] [GBe]>[Be] [GBe]>[Be] [GBe]>[Be] | %13
w: ||
[M:3/4] [FBd]>B d>g f2 |[M:1/4] _D>=D |[M:4/4] [G=Bf]>[Bf] [GBf]>[Bf] [GBf]>[Bf] [GBf]>[Bf] | %16
w: |||
 [G=Bf]>[Bf] [Gce]>[ce] [Gce]>[ce] [Gce]>[Gce] | [Gc=e]>[ce] [Gce]>[ce] [GBe]>[Be] [Gce]>[Be] | %18
w: ||
[M:7/8] [FAe]>ee>e e3 |[M:1/4] d>e |[M:4/4] f2 d2 e2 d2 | [=Ec]2 [EG]2- [EG]>^F G>_A | %22
w: ||||
 A2 e2 d2 c2 |[M:3/4] F6 |[M:1/4] F>F |[M:4/4] G2 [^FA]2 [GB]2 [Ac]2 | %26
w: ||||
[M:9/8] d2 e- e f2- fF>F[Q:1/4=99][Q:1/4=97][Q:1/4=96][Q:1/4=94][Q:1/4=93][Q:1/4=91][Q:1/4=90][Q:1/4=88] | %27
w: |
[M:4/4] G2 [Ge]2 [Fd]2 [Ec]2[Q:1/4=87][Q:1/4=85][Q:1/4=84][Q:1/4=82][Q:1/4=81][Q:1/4=79][Q:1/4=78][Q:1/4=76] | %28
w: |
 [DB]6 z2 |] %29
w: |
V:2
 z4 F2 z2 | D2 [B,D]2 D>D _D>=D | [A,C]2 [A,C]2 [A,C]2 z2 |[M:3/4] [B,D]2 [B,D]2 D2 |[M:1/4] x2 | %5
[M:4/4] z4 F2 z2 | D2 [B,D]2 [B,D]2 z2 | c2- [FAc-]2 [=EGc]2 [B,EG]2 | %8
[M:7/8] [EA]>[EA][EG]>[EG] [EF]3 |[M:1/4] x2 |[M:4/4] x8 | x8 | x8 |[M:3/4] x6 |[M:1/4] x2 | %15
[M:4/4] x8 | x8 | x8 |[M:7/8] x7 |[M:1/4] x2 |[M:4/4] x8 | x8 | x8 |[M:3/4] z2 E2 D2 |[M:1/4] x2 | %25
[M:4/4] x8 |[M:9/8] x9 |[M:4/4] x8 | x8 |] %29
V:3
 [B,F]2 [F,F]2[K:bass] B,,2 [E,E]2 | B,>F, D,>G, [F,B,]2 z2 | F,,>A,, C,>D, E,2 G2 | %3
[M:3/4] B,,>C, D,>G, [F,B,]2 |[M:1/4] z2 |[M:4/4][K:treble] [B,F]2 [F,F]2[K:bass] B,,2 [E,E]2 | %6
 B,>F, D,>G, z z/[K:treble] =E/ F>A | C,>F, A,>D C2 C,2 |[M:7/8] F,>CB,>B, A,3 |[M:1/4] F,>A, | %10
[M:4/4][K:treble] z z/ F/ z z/ F/ z z/ F/ z z/ F/ | z z/ F/ z z/ F/[K:bass] z z/ F/ =E,>F, | %12
 z z/[K:treble] G/ z z/ G/ z z/ G/ z z/ G/ |[M:3/4] z z/ F/ [FB]>[Bd] [Bd]2 |[M:1/4] z2 | %15
[M:4/4] z z/ G/ z z/ G/ z z/ G/ z z/ G/ | z z/ G/ z z/ G/ z z/ G/[K:bass] ^F,>G, | %17
 z z/[K:treble] G/ z z/ G/ z z/ G/ z z/ G/ |[M:7/8] z z/ [FA]<[FA][FA]/ [FA]3 | %19
[M:1/4] [B,F]>[B,CF] |[M:4/4] [B,DF]2 [B,F]2 [G,=B,F]2 [G,B,F]2 | [C,B,]2 [C,B,]4 z2 | %22
 [F,CF]2 [F,A,F]2 [F,A,F]2 [E,A,F]2 |[M:3/4] [D,B,]2 [C,A,]2 [B,,B,]2 |[M:1/4] [D,B,]>[D,B,] | %25
[M:4/4] [E,B,E]2 [D,D]2[K:treble] [G,D]2 [F,F]2 | %26
[M:9/8] [B,FB]2 [B,CB]- [B,CB] [B,DB]2- [B,DB][K:bass][D,B,]>[D,B,] | %27
[M:4/4] [E,B,E]2 [C,B,]2 [F,B,]2 [F,A,]2 | [B,,B,]6 z2 |] %29
V:4
 x4[K:bass] x4 | x8 | x8 |[M:3/4] x6 |[M:1/4] x2 |[M:4/4][K:treble] x4[K:bass] x4 | %6
 z4 F,2[K:treble] z2 | x8 |[M:7/8] x7 |[M:1/4] x2 |[M:4/4][K:treble] C2 D2 E2 A,2 | %11
 B,2 D2[K:bass] F,2 z2 | G,2[K:treble] B,2 E2 B,2 |[M:3/4] D6 |[M:1/4] x2 |[M:4/4] E2 D2 =B,2 A,2 | %16
 D2 C2 G,2[K:bass] z2 | A,2[K:treble] B,2 C2 D2 |[M:7/8] C-C-C- C- C3 |[M:1/4] x2 |[M:4/4] x8 | %21
 x8 | x8 |[M:3/4] x6 |[M:1/4] x2 |[M:4/4] x4[K:treble] x4 |[M:9/8] x7[K:bass] x2 |[M:4/4] x8 | %28
 x8 |] %29

